X:2504
T:Britannia Two Step
T:Looking for a Partner
T:Waiting for a Partner
R:Jig
C:Trad.
O:England
Z:Paul Hardy's Session Tunebook 2015 (see www.paulhardy.net). Creative Commons cc by-nc-sa licenced.
M:6/8
L:1/8
Q:3/8=120
K:D
"D"F2F FED|A2A A2F|"Em"G2G GFE|B2B B3|"A"c2c c2d|e2c B2A|"D"d2c d2e|"A7"fed cBA|
"D"F2F FED|A2A A2F|"Em"G2G GFE|B2B B2c|"Bm"ddd dcB|"D"AAA AGF|"A"EFG ABc|"D"dAB "A7"cde||
"D"f3 f3|fed A3|dcd e2d|"A"c3 "G"B3|g3 g3|"Em"gfe B3|"A"c2B c2d|"Em"e2c B2A|
"D"f3 f3|fed A3|dcd e2d|"A"c3 "G"B3|"Em"g2g gfe|"D"d2d dcB|"A7"A3 c3|"D"d3 A3|]

